newicons/archero_2.svg

<?xml version="1.0" encoding="UTF-8" standalone="no"?>
<svg
   viewBox="0 0 48 48"
   version="1.1"
   id="svg3514"
   sodipodi:docname="archero_2.svg"
   inkscape:version="1.2.2 (b0a8486541, 2022-12-01)"
   xmlns:inkscape="http://www.inkscape.org/namespaces/inkscape"
   xmlns:sodipodi="http://sodipodi.sourceforge.net/DTD/sodipodi-0.dtd"
   xmlns="http://www.w3.org/2000/svg"
   xmlns:svg="http://www.w3.org/2000/svg">
  <sodipodi:namedview
     id="namedview3516"
     pagecolor="#505050"
     bordercolor="#eeeeee"
     borderopacity="1"
     inkscape:showpageshadow="0"
     inkscape:pageopacity="0"
     inkscape:pagecheckerboard="0"
     inkscape:deskcolor="#505050"
     showgrid="false"
     inkscape:zoom="9"
     inkscape:cx="16.666667"
     inkscape:cy="28.777778"
     inkscape:window-width="1912"
     inkscape:window-height="1054"
     inkscape:window-x="0"
     inkscape:window-y="0"
     inkscape:window-maximized="1"
     inkscape:current-layer="svg3514" />
  <defs
     id="defs3498">
    <style
       id="style3496">.a{fill:none;stroke:#fff;stroke-linecap:round;stroke-linejoin:round;}</style>
  </defs>
  <path
     style="fill:none;stroke:#ffffff;stroke-width:1;stroke-linecap:round;stroke-linejoin:round"
     d="m 41.403719,40.784277 c -1.052384,1.805466 -4.190226,1.515819 -4.190226,1.515819 1.158588,-7.859087 0.318611,-17.446402 -6.874288,-24.639301 -7.1929,-7.1929 -16.780214,-8.0328759 -24.6393016,-6.874288 0,0 -0.2896469,-3.1378422 1.5158191,-4.1902261"
     id="path3846" />
  <g
     id="g3895">
    <g
       id="g3871">
      <path
         style="fill:none;stroke:#ffffff;stroke-width:1;stroke-linecap:round;stroke-linejoin:round"
         d="M 14.053262,39.507965 36.486347,20.68437"
         id="path3844" />
      <path
         style="fill:none;stroke:#ffffff;stroke-width:1;stroke-linecap:round;stroke-linejoin:round"
         d="m 43.451168,14.840193 -10.927053,3.01735 4.208052,2.620562 1.850029,4.599178 z"
         id="path3842" />
      <path
         style="fill:none;stroke:#ffffff;stroke-width:1;stroke-linecap:round;stroke-linejoin:round"
         d="M 14.053262,39.507965 10.110101,39.162987"
         id="path3840" />
      <path
         style="fill:none;stroke:#ffffff;stroke-width:1;stroke-linecap:round;stroke-linejoin:round"
         d="M 16.657103,37.323086 12.713941,36.978104"
         id="path3838" />
      <path
         style="fill:none;stroke:#ffffff;stroke-width:1;stroke-linecap:round;stroke-linejoin:round"
         d="m 16.31212,41.266247 0.344983,-3.943161"
         id="path3836" />
      <path
         style="fill:none;stroke:#ffffff;stroke-width:1;stroke-linecap:round;stroke-linejoin:round"
         d="m 13.70828,43.451126 0.344982,-3.943161"
         id="path3834" />
    </g>
    <g
       id="g3879">
      <path
         style="fill:none;stroke:#ffffff;stroke-width:1;stroke-linecap:round;stroke-linejoin:round"
         d="M 8.492034,33.946739 27.315628,11.51365"
         id="path3832" />
      <path
         style="fill:none;stroke:#ffffff;stroke-width:1;stroke-linecap:round;stroke-linejoin:round"
         d="m 33.159806,4.548832 -10.23709,4.8689724 4.599179,1.8500286 2.620561,4.208052 z"
         id="path3830" />
      <path
         style="fill:none;stroke:#ffffff;stroke-width:1;stroke-linecap:round;stroke-linejoin:round"
         d="M 8.492034,33.946739 4.5488725,34.291721"
         id="path3828" />
      <path
         style="fill:none;stroke:#ffffff;stroke-width:1;stroke-linecap:round;stroke-linejoin:round"
         d="M 10.676915,31.342897 6.7337537,31.68788"
         id="path3826" />
      <path
         style="fill:none;stroke:#ffffff;stroke-width:1;stroke-linecap:round;stroke-linejoin:round"
         d="M 11.021896,35.28606 10.676915,31.342897"
         id="path3824" />
      <path
         style="fill:none;stroke:#ffffff;stroke-width:1;stroke-linecap:round;stroke-linejoin:round"
         d="M 8.8370152,37.8899 8.492034,33.946739"
         id="line3667" />
    </g>
  </g>
</svg>

<?xml version="1.0" encoding="UTF-8"?><svg id="a" xmlns="http://www.w3.org/2000/svg" viewBox="0 0 48 48"><path id="e" d="M41.4037,40.7843c-1.0524,1.8055-4.1902,1.5158-4.1902,1.5158,1.1586-7.8591.3186-17.4464-6.8743-24.6393S13.559,9.6279,5.6999,10.7865c0,0-.2896-3.1378,1.5158-4.1902" style="fill:none; stroke:#fff; stroke-linecap:round; stroke-linejoin:round;"/><g id="f"><g id="g"><path id="h" d="M14.0532,39.508l22.4331-18.8236" style="fill:none; stroke:#fff; stroke-linecap:round; stroke-linejoin:round;"/><path id="i" d="M43.4511,14.8402l-10.9271,3.0173,4.2081,2.6206,1.85,4.5992,4.869-10.2371Z" style="fill:none; stroke:#fff; stroke-linecap:round; stroke-linejoin:round;"/><path id="j" d="M14.0532,39.508l-3.9432-.345" style="fill:none; stroke:#fff; stroke-linecap:round; stroke-linejoin:round;"/><path id="k" d="M16.6571,37.3231l-3.9432-.345" style="fill:none; stroke:#fff; stroke-linecap:round; stroke-linejoin:round;"/><path id="l" d="M16.3121,41.2663l.345-3.9432" style="fill:none; stroke:#fff; stroke-linecap:round; stroke-linejoin:round;"/><path id="m" d="M13.7083,43.4511l.345-3.9432" style="fill:none; stroke:#fff; stroke-linecap:round; stroke-linejoin:round;"/></g><g id="n"><path id="o" d="M8.492,33.9468L27.3156,11.5137" style="fill:none; stroke:#fff; stroke-linecap:round; stroke-linejoin:round;"/><path id="p" d="M33.1598,4.5489l-10.2371,4.869,4.5992,1.85,2.6206,4.2081,3.0174-10.9271Z" style="fill:none; stroke:#fff; stroke-linecap:round; stroke-linejoin:round;"/><path id="q" d="M8.492,33.9468l-3.9432.345" style="fill:none; stroke:#fff; stroke-linecap:round; stroke-linejoin:round;"/><path id="r" d="M10.6769,31.3429l-3.9432.345" style="fill:none; stroke:#fff; stroke-linecap:round; stroke-linejoin:round;"/><path id="s" d="M11.0219,35.2861l-.345-3.9432" style="fill:none; stroke:#fff; stroke-linecap:round; stroke-linejoin:round;"/><path id="t" d="M8.837,37.8899l-.345-3.9432" style="fill:none; stroke:#fff; stroke-linecap:round; stroke-linejoin:round;"/></g></g></svg>
